src/assets/navbar/Frame.svg

<svg width="24" height="24" viewBox="0 0 24 24" fill="none" xmlns="http://www.w3.org/2000/svg">
<g clip-path="url(#clip0_24_1902)">
<path d="M24 0H0V24H24V0Z" fill="white" fill-opacity="0.01"/>
<path d="M9.80402 15.9996C9.97082 17.0364 10.1976 17.964 10.4688 18.7404C10.764 19.584 11.0928 20.1948 11.4084 20.5764C11.7288 20.964 11.934 21 12 21C12.066 21 12.2712 20.964 12.5916 20.5764C12.906 20.196 13.2348 19.584 13.5312 18.7404C13.8024 17.9652 14.0292 17.0364 14.196 15.9996H9.80402Z" fill="black"/>
<path d="M16.2192 15.9996C16.0332 17.2668 15.762 18.42 15.4188 19.4016C15.0972 20.3208 14.6952 21.1344 14.208 21.7548C17.3364 21.0492 19.908 18.8784 21.1656 15.9996H16.2192Z" fill="black"/>
<path d="M8.58121 19.4016C8.23801 18.4212 7.96681 17.268 7.78081 15.9996H2.83441C4.09201 18.8772 6.66361 21.0492 9.79201 21.7548C9.30481 21.1344 8.90281 20.3208 8.58121 19.4016Z" fill="black"/>
<path d="M7.5 12C7.5 11.3184 7.524 10.65 7.5684 9.9996H2.2008C2.07 10.6464 2.0004 11.3148 2.0004 12C2.0004 12.6852 2.07 13.3536 2.2008 14.0004H7.5684C7.524 13.35 7.5 12.6816 7.5 12Z" fill="black"/>
<path d="M9.5004 12C9.5004 12.6888 9.5256 13.3572 9.5736 14.0004H14.4276C14.4756 13.3584 14.5008 12.6888 14.5008 12C14.5008 11.3112 14.4756 10.6428 14.4276 9.9996H9.5736C9.5256 10.6428 9.5004 11.3112 9.5004 12Z" fill="black"/>
<path d="M21.7992 9.9996H16.4316C16.476 10.6488 16.5 11.3172 16.5 12C16.5 12.6828 16.476 13.35 16.4316 14.0004H21.7992C21.93 13.3536 21.9996 12.6852 21.9996 12C21.9996 11.3148 21.9312 10.6464 21.7992 9.9996Z" fill="black"/>
<path d="M12.5916 3.4236C12.2712 3.036 12.066 3 12 3C11.934 3 11.7288 3.036 11.4084 3.4236C11.094 3.804 10.7652 4.416 10.4688 5.2596C10.1976 6.0348 9.97082 6.9636 9.80402 8.0004H14.1948C14.028 6.9636 13.8012 6.036 13.53 5.2596C13.236 4.416 12.9072 3.804 12.5916 3.4236Z" fill="black"/>
<path d="M15.4188 4.5984C15.762 5.5788 16.0332 6.732 16.2192 8.0004H21.1656C19.908 5.1228 17.3364 2.9508 14.208 2.2452C14.6952 2.8656 15.0972 3.6792 15.4188 4.5984Z" fill="black"/>
<path d="M8.58121 4.5984C8.90281 3.6792 9.30481 2.8656 9.79201 2.2452C6.66361 2.9508 4.09201 5.1216 2.83441 8.0004H7.78081C7.96561 6.732 8.23801 5.5788 8.58121 4.5984Z" fill="black"/>
</g>
<defs>
<clipPath id="clip0_24_1902">
<rect width="24" height="24" fill="white"/>
</clipPath>
</defs>
</svg>

<svg fill="none" height="24" viewBox="0 0 24 24" width="24" xmlns="http://www.w3.org/2000/svg" xmlns:xlink="http://www.w3.org/1999/xlink"><clipPath id="a"><path d="m0 0h24v24h-24z"/></clipPath><g clip-path="url(#a)"><path d="m24 0h-24v24h24z" fill="#fff" fill-opacity=".01"/><g fill="#000"><path d="m9.80402 15.9996c.1668 1.0368.39358 1.9644.66478 2.7408.2952.8436.624 1.4544.9396 1.836.3204.3876.5256.4236.5916.4236s.2712-.036.5916-.4236c.3144-.3804.6432-.9924.9396-1.836.2712-.7752.498-1.704.6648-2.7408z"/><path d="m16.2192 15.9996c-.186 1.2672-.4572 2.4204-.8004 3.402-.3216.9192-.7236 1.7328-1.2108 2.3532 3.1284-.7056 5.7-2.8764 6.9576-5.7552z"/><path d="m8.58121 19.4016c-.3432-.9804-.6144-2.1336-.8004-3.402h-4.9464c1.2576 2.8776 3.8292 5.0496 6.9576 5.7552-.4872-.6204-.8892-1.434-1.2108-2.3532z"/><path d="m7.5 12c0-.6816.024-1.35.0684-2.0004h-5.3676c-.1308.6468-.2004 1.3152-.2004 2.0004s.0696 1.3536.2004 2.0004h5.3676c-.0444-.6504-.0684-1.3188-.0684-2.0004z"/><path d="m9.5004 12c0 .6888.0252 1.3572.0732 2.0004h4.854c.048-.642.0732-1.3116.0732-2.0004s-.0252-1.3572-.0732-2.0004h-4.854c-.048.6432-.0732 1.3116-.0732 2.0004z"/><path d="m21.7992 9.9996h-5.3676c.0444.6492.0684 1.3176.0684 2.0004s-.024 1.35-.0684 2.0004h5.3676c.1308-.6468.2004-1.3152.2004-2.0004s-.0684-1.3536-.2004-2.0004z"/><path d="m12.5916 3.4236c-.3204-.3876-.5256-.4236-.5916-.4236s-.2712.036-.5916.4236c-.3144.3804-.6432.9924-.9396 1.836-.2712.7752-.49798 1.704-.66478 2.7408h4.39078c-.1668-1.0368-.3936-1.9644-.6648-2.7408-.294-.8436-.6228-1.4556-.9384-1.836z"/><path d="m15.4188 4.5984c.3432.9804.6144 2.1336.8004 3.402h4.9464c-1.2576-2.8776-3.8292-5.0496-6.9576-5.7552.4872.6204.8892 1.434 1.2108 2.3532z"/><path d="m8.58121 4.5984c.3216-.9192.7236-1.7328 1.2108-2.3532-3.1284.7056-5.7 2.8764-6.9576 5.7552h4.9464c.1848-1.2684.4572-2.4216.8004-3.402z"/></g></g></svg>
